cssgg/dice-2.svg

<svg
  width="24"
  height="24"
  viewBox="0 0 24 24"
  fill="none"
  xmlns="http://www.w3.org/2000/svg"
>
  <path
    d="M17.2 14.9431C16.0954 14.9431 15.2 15.8385 15.2 16.9431C15.2 18.0477 16.0954 18.9431 17.2 18.9431C18.3045 18.9431 19.2 18.0477 19.2 16.9431C19.2 15.8385 18.3045 14.9431 17.2 14.9431Z"
    fill="currentColor"
  />
  <path
    d="M5.05518 7.05518C5.05518 5.95061 5.95061 5.05518 7.05518 5.05518C8.15975 5.05518 9.05518 5.95061 9.05518 7.05518C9.05518 8.15975 8.15975 9.05518 7.05518 9.05518C5.95061 9.05518 5.05518 8.15975 5.05518 7.05518Z"
    fill="currentColor"
  />
  <path
    fill-rule="evenodd"
    clip-rule="evenodd"
    d="M4 1C2.34315 1 1 2.34315 1 4V20C1 21.6569 2.34315 23 4 23H20C21.6569 23 23 21.6569 23 20V4C23 2.34315 21.6569 1 20 1H4ZM20 3H4C3.44772 3 3 3.44772 3 4V20C3 20.5523 3.44772 21 4 21H20C20.5523 21 21 20.5523 21 20V4C21 3.44772 20.5523 3 20 3Z"
    fill="currentColor"
  />
</svg>

<svg viewBox="0 0 24 24" xmlns="http://www.w3.org/2000/svg"><g><path d="M17.2 14.94c-1.11 0-2 .89-2 2 0 1.1.89 2 2 2 1.1 0 2-.9 2-2 0-1.11-.9-2-2-2Z"/><path d="M5.05 7.05c0-1.11.89-2 2-2 1.1 0 2 .89 2 2 0 1.1-.9 2-2 2 -1.11 0-2-.9-2-2Z"/><path fill-rule="evenodd" d="M4 1C2.34 1 1 2.34 1 4v16c0 1.65 1.34 3 3 3h16c1.65 0 3-1.35 3-3V4c0-1.66-1.35-3-3-3H4Zm16 2H4c-.56 0-1 .44-1 1v16c0 .55.44 1 1 1h16c.55 0 1-.45 1-1V4c0-.56-.45-1-1-1Z"/></g></svg>
